!!!ONB: MCCC : IGF0062_00 : Extracted Monophonic Melody
!!!COM: Fauré, Gabriel
!!!OTL: Nocturne No.13 in B minor
!!!SCT: Op.119
!!!ODT: 1922///
**kern
*staff1
=1
*clefG2
*k[f#c#]
*D:
*M3/2
2f#
2.d
4d
=2
2e
2.f#
8r
8f#
=3
2g
4.a
8g
2f#
=4
1e
2a
=5
2b
2.g
4g
=6
2a
2.b
8b
8cc#
=7
2dd
2ee
4.ee
8dd
=8
2.cc#
4cc#[
2cc#]
=9
2ff#
2.f#
4a
=10
2ee
2.e
4e
=11
4r
4f#
2g
4a
8g#
8a
=12
4r
4g#
2a
4b
8a#
8b
=13
2a#
2.f#
4ff#
=14
2aa#
2gg[
8gg]
8ff
4dd#
=15
2d#
2.B
4b
=16
2dd
[2b
8b]
8a
4g
=17
4r
4f#
4g
4a[
4a]
4g
=18
2f#
1d
=19
4r
4f#
4g
4a[
4a]
4g#
=20
4r
4g#
4a
[4b
4b]
4a#
=21
4r
4b
4cc
4dd[
4dd]
4cc#
=22
2.aa[
8aa]
8ff#
4.gg#
8aa
=23
4.bb
8gg
1aa[
=24
4aa]
4ccc
4bb
4aa
4.gg
8ff#
=25
4ee
4dd
4cc#
4b
4.a
8g#
=26
2f#
4g#
4a
4.b
8cc#
=27
4.dd
8b
4.cc#
8dd
4.ee
8cc#
=28
4.dd#
8ee
4.ff
8ff#
4.gg
8gg#
=29
4.ccc#
8bb
4.ccc#
8aa
8gg
8aa
4bb
=30
4.ccc#
8bb
4.ccc#
8aa
8gg
8aa
4bb
=31
4.ccc#
8bb
4.ccc#
8aa
8gg
8ff#
4gg
=32
2aa
4.aa
8ff#
4.gg#
8aa
=33
4.bb
8gg
1aa[
=34
4aa]
4ccc
4bb
4aa
4.gg
8ff#
=35
4ee
4dd
4cc#
4a#
4.a
8g
=36
4f
4d#
4d
4c
8r
8c
8d
8f
=37
8r
8B
4d
8r
8A#
4c#
4r
8G#
8B
=38
2g
8r
8A#
8c#
8d#
8c#
8d#
4f
=39
8gg
8gg[
8gg]
8ff
8gg
8gg[
8gg]
8ff
8gg
8gg[
8gg]
8f
=40
2f#
2.d
4d
=41
2e
1f#
=42
2g
4.a
8g
2f#
=43
1e
2r
=44
2dd
[2b
4b_
4b]
=45
2gg
2.ff#
8gg
8aa
=46
2bb
4.ff#
8dd
4.cc#
8b
=47
[1b
4b]
4cc
=48
2b
2.a
4g
=49
1.r
=50
1.r
=51
1.r
=52
2r
2b
2bb
=53
*M2/2
2bb
2r
=54
2r
12d#
12B
12d#
12d#
12g#
12b
=55
2b
4r
12d#
12A#
12d#
=56
4r
4b
4dd#
4ee
=57
4ff#
4gg
4aa
4bb
=58
2bb
2aa#
=59
2aa#
2gg[
=60
4gg]
4dd#
4dd#
4dd
=61
4cc
4b
4b
4a#
=62
1dd#
=63
1r
=64
2r
4ee#
4ff#
=65
4gg#
4ff#
4ff#
4ee
=66
4ee
16ee
16ee[
8ee]
4dd#
16dd#
16dd#[
8dd#]
=67
2dd#
2cc#[
=68
4cc#]
4cc#
4ff#
4gg
=69
4aa
4gg
4gg
4ff
=70
4bb
4aa
4aa
4gg
=71
2ff#
2ee
=72
1dd#
=73
2ff#
4ff
16ff
16ff[
8ff]
=74
1dd#
=75
2cc##
2dd#[
=76
2dd#]
4r
12d
12G#
12d
=77
4r
12B
12G#
12B
2d#
=78
1r
=79
1r
=80
1r
=81
8f#
8f#
16f#
16f#[
8f#]
8g#
8g#
16g#
16g#[
8g#]
=82
4.g#
8f#
8g#
8g#
16g#
16g#[
8g#]
=83
2a
2b
=84
2r
8r
8e
12G#
12c#
12e
=85
[8b
8b_
16b_
16b_
8b]
8cc#
8cc#
16cc#
16cc#[
8cc#]
=86
2r
4.dd#
8cc#
=87
4.dd#
8b
8a
8b
4cc#
=88
2r
4.dd#
8cc#
=89
4.dd#
8ee
8ff
8ff#
4gg
=90
4bb
16bb
16bb[
8bb]
2aa#[
=91
4aa#]
12r
12d#
12B
4dd#
4ee
=92
4ff#
4gg
4aa
12bb
12bb[
12bb]
=93
2.bb
12aa#
12aa#[
12aa#]
=94
4bb
16bb
16bb[
8bb]
2aa#
=95
2aa#
2gg[
=96
4gg]
4dd#
4dd#
4dd
=97
4cc
4b
4b
4a#
=98
2dd#
12r
12g#
12dd#
12dd
12dd
12cc##]
=99
2.dd#
12dd#
12dd#[
12dd#]
=100
2dd#
2cc#[
=101
2cc#]
4ee#
4ff#
=102
2r
2ee[
=103
2ee]
4gg#
4aa
=104
2r
2gg[
=105
2gg]
4bb
12ccc
12ccc[
12ccc]
=106
*M3/2
2ccc
4gg#
16gg#
8.gg#
16gg#
16gg
16gg#
16aa#
12ccc
12ddd
12eee
=107
12fff
12ggg
12ggg#
12aaa#
12cccc
12dddd
12eeee
12ffff
12fff
12fff
12gg#
12ff
4r
8aa#
8ccc
=108
4.ddd
8ddd
8ddd
8ddd[
4ddd]
12r
12cc
12dd
12dd
12ccc
12ddd
=109
2ddd
4aa#
16aa#
8.aa#
16aa#
16aa
16aa#
16ccc
12ddd
12eee
12fff#
=110
12ggg
12aaa
12aaa#
12cccc
12dddd
12eeee
12ffff#
12gggg
12ggg
12ggg
12aa#
12gg
4r
8ccc
8ddd
=111
4.eee
8eee
8eee
8eee[
4eee]
12r
12dd
12ee
12ee
12ddd
12eee
=112
2eee
4ccc
16ccc
8.ccc
16ccc
16bb
16ccc
16ddd
12eee
12fff#
12ggg#
=113
12aaa
12bbb
12cccc
12dddd
12eeee
12ffff#
12gggg#
12aaaa
12aaa
12aaa
12ccc
12aa
4r
8ddd
8eee
=114
4.fff#
8fff#
8fff#
8fff#[
4fff#]
12r
12ee
12ff#
12ff#
12eee
12fff#
=115
2fff#
2.ddd
4ddd
=116
12eee
12eee
12eee[
4eee]
4fff#
16fff#
16fff#
8fff#
16fff#
16fff#
8fff#
16fff#
16fff#[
8fff#]
=117
2ff#
2.dd
4dd
=118
12ee
12ee
12ee[
4ee]
2ff#
4ff#
8ff#
16ff#[
16ff#]
=119
2ff#
16dd#
16dd#
8dd#
16dd#
16dd#
8dd#
16dd#
16ee
8ff
16ff#
16gg
8gg#
=120
12aa
12bb
12ccc
12ccc#
12ddd
12ddd#
12eee
12ccc
12ddd
12bb
12ccc
12aa
12bb
12gg
12aa
12ff#
12gg
12ee
=121
2ff#
16dd
16dd
8dd[
4dd]
16dd
16ee
16ff
16ff#
16gg
16gg#
16aa
16aa#
=122
12bb
12bb
12ccc#
12ddd
12ddd#
12eee
12fff#
12ccc#
12ddd
12bb
12ccc#
12aa
12bb
12gg#
12aa#
12ff#
12gg#
12ee
=123
2ff#
1dd
=124
1dd[
4dd]
4dd
=125
2ff#
1dd
=126
1dd[
4dd]
4d
=127
2f#
[2d
2d_
=128
2d]
2.f#
8r
8f#
=129
2g
4.a
8g
2f#
=130
1e
2a
=131
2b
2.g
4g
=132
2a
2.b
8b
8cc#
=133
2dd
2ee
4.ee
8dd
=134
2.cc#
4cc#[
2cc#]
=135
2ff#
2.f#
4a
=136
2ee
2.e
4e
=137
4r
4f#
2g
4a
8g#
8a
=138
4r
4g#
2a
4b
8a#
8b
=139
2a#
2.f#
4f#
=140
2g
1a
=141
2a#
2.f#
8a#
8b
=142
2cc#
2dd
4dd
4dd
=143
2gg
8ff#[
4.ff#]
4a#
8eee
8fff#
=144
2gg
8ff#[
4.ff#]
4a
8eee
8fff#
=145
4gg[
4gg]
4.ff#[
8ff#]
4ee
8ee[
8ee]
=146
4dd
8dd[
8dd]
4cc#
8cc#[
8cc#]
[4b
8b_
8b]
=147
[1b
4b_
4b]
=148
4.b
8a
4.b
8g
8f
8g
4a
=149
1b
4e
4c
=150
1d
4e
4c
=151
1.r
=152
4.c#
8d
4.e
8f#
4.g
8a
=153
[4b
4b_
2b]
[2b
=154
2b]
2b
2b
=155
1.b
==
*-
